X: 10131
T: JULIANNU'S MARCIO GALLOP
O: Arranged by W. B. dBzuBz |LAYBOURN
B: K\"ohler's Violin Repository, v.1, 1885 p.13 #1
F: http://www.archive.org/details/klersviolinrepos01edin
Z: 2011 John Chambers <jc:trillian.mit.edu>
M: 2/4
L: 1/8
K: D
|:\
AA/A/ (.A.A) | AFDF | ADBD | cDdD |\
ee/e/ (.e.e) |edcB | cc/c/ (.c.B) | A^G=GE |
AA/A/ (.A.A) | AFDF | ADBD | dCdC |\
ee/e/ (.e.f) | gfed | (cB)GE | D2z2 :|[K:G]
|: vBzuBz | vBzuBz | (.A>.G)FG | D2z2 |\
vFzuFz | vFzuFz | F>GAB | cded |
vBzuBz | vBzuBz | B>def | ag Bd |\
fe Ac | ed FG | (BA) EF G2z2 :|[K:D]
|: AA/A/ (.A.A) | AAAA | fedc | (c^A)B2 |\
BB/B/ (BB) | BBBB | gfed | (d^B) c2 |
aa/a/ (ae) | gf^ef | ff/f/ (fc) | edcd |\
cc/c/ (c^G) | BA^GA | ^AB^Bc | dfg^g |
aa/a/ (ae) | gf^ef | ff/f/ (fc) | edcd |\
cc/c/ (c^G) | BA^GA | ^AB^Bc | d2z2 :|

%%sep 2 1 500

